X: 2367
T: QUMDARO
T: Quindaro Hornpipe
N: The "Qumdaro" title is a misreading of (perhaps poorly kerned) "Quindaro".
N: Kerr has this mispelling in both the index and the tune.
R: Hornpipe.
%R: hornpipe, reel
B: James Kerr "Merry Melodies" v.2 p.40 #367
Z: 2016 John Chambers <jc:trillian.mit.edu>
M: C
L: 1/8
K: G
(ugf) | g2 G4 vBG | FADF G2 \
[1,3 (Bc) | dBed cBAG | FA D4 :|\
[2,4 (AB) | cedc BAGF | G2G2G2 ::\
(dc) |\
BgBc d2(cB) |
caAB c2(BA) |\
Bded cBAG | FA D4 (ga) |\
b(gfg) .d(gfg) | .b(gfg) .d(gfg) |\
edcB AGFA | G2G2G2 |]
